icons/machinery.svg

<svg width="48" height="48" viewBox="0 0 48 48" fill="none" xmlns="http://www.w3.org/2000/svg">
<path fill-rule="evenodd" clip-rule="evenodd" d="M29.7124 24.1887C30.0832 24.0637 30.4751 23.9998 30.8701 23.9998H31.9823C32.1271 23.9998 32.2416 23.8771 32.2317 23.7326L31.7822 17.2154C31.7641 16.9532 31.5458 16.7483 31.2833 16.7616C27.0169 16.9779 23.5893 20.1481 23.326 24.496L23.291 25.0748C23.2706 25.4103 23.5807 25.6699 23.9075 25.591L29.7124 24.1887ZM29.9002 18.9957C27.8196 19.5676 26.2105 21.0947 25.5889 23.1273L29.1667 22.263C29.475 22.1651 29.7911 22.0943 30.1109 22.051L29.9002 18.9957Z" fill="black"/>
<path fill-rule="evenodd" clip-rule="evenodd" d="M10.5 6C8.56699 6 6.99999 7.567 6.99999 9.5C6.99999 10.0765 7.13935 10.6204 7.38622 11.0999L6.22552 24.3762C6.22366 24.3975 6.22258 24.4186 6.22225 24.4396L6.14029 26.7602C6.0508 29.2941 7.91852 31.4736 10.4362 31.7732L10.6168 31.7947C12.5533 32.0251 14.4408 31.0793 15.4154 29.3902L17.6115 25.584C18.106 24.727 17.333 23.695 16.3715 23.9286L14.69 24.3371L12.1424 24.1715L11.076 24.0446L12.7683 12.8234C14.5828 13.385 16.3755 13.9812 17.9209 14.8254C19.4156 15.6419 20.6087 16.6538 21.3376 18.0226C20.0545 19.8153 19.2512 21.98 19.1204 24.3344L18.8087 29.9445C18.7768 30.5177 19.2331 31 19.8071 31H41.4566C41.7492 31 41.9792 30.75 41.9549 30.4585L41.3647 23.3754C41.2999 22.598 40.65 22 39.8699 22H36.0436C36.0186 22 35.9975 21.9816 35.9941 21.9569L34.9896 14.7249C34.8523 13.7361 34.0069 13 33.0086 13H31.1019C29.2853 13 27.5589 13.4048 26.0109 14.131C23.0968 9.72341 17.9988 8.48147 13.3623 7.48528C12.7288 6.58684 11.6829 6 10.5 6ZM8.99999 9.5C8.99999 8.67157 9.67156 8 10.5 8C11.3284 8 12 8.67157 12 9.5C12 10.3284 11.3284 11 10.5 11C9.67156 11 8.99999 10.3284 8.99999 9.5ZM10.9768 12.9678C10.8209 12.989 10.6617 13 10.5 13C9.96554 13 9.45907 12.8802 9.00597 12.666L7.9711 24.5031L7.8892 26.822C7.83184 28.4463 9.02909 29.8434 10.643 30.0354L10.8236 30.0569C12.0649 30.2046 13.2748 29.5984 13.8996 28.5156L15.3663 25.9737L15.0104 26.0602C14.8996 26.087 14.7855 26.097 14.6718 26.0896L11.9822 25.9148L10.2289 25.7062C9.59828 25.6311 9.15473 25.0493 9.24944 24.4213L10.9768 12.9678ZM18.8797 13.0702C17.2466 12.1781 15.3985 11.5485 13.6603 11.006C13.8545 10.5991 13.9725 10.1489 13.9957 9.67381C18.25 10.6355 22.0323 11.8315 24.2737 15.1312C23.7169 15.517 23.1941 15.9489 22.7109 16.4214C21.7439 14.9521 20.3752 13.8872 18.8797 13.0702ZM21.1173 24.4453C21.4117 19.1461 25.7945 15 31.1019 15H33.0086L34.0131 22.232C34.1538 23.2455 35.0204 24 36.0436 24H39.4098L39.8265 29H20.8642L21.1173 24.4453Z" fill="black"/>
<path d="M23.5 39C24.3284 39 25 38.3284 25 37.5C25 36.6716 24.3284 36 23.5 36C22.6716 36 22 36.6716 22 37.5C22 38.3284 22.6716 39 23.5 39Z" fill="black"/>
<path d="M31 37.5C31 38.3284 30.3284 39 29.5 39C28.6716 39 28 38.3284 28 37.5C28 36.6716 28.6716 36 29.5 36C30.3284 36 31 36.6716 31 37.5Z" fill="black"/>
<path d="M35.5 39C36.3284 39 37 38.3284 37 37.5C37 36.6716 36.3284 36 35.5 36C34.6716 36 34 36.6716 34 37.5C34 38.3284 34.6716 39 35.5 39Z" fill="black"/>
<path fill-rule="evenodd" clip-rule="evenodd" d="M21.5 33C19.0147 33 17 35.0147 17 37.5C17 39.9853 19.0147 42 21.5 42H37.5C39.9853 42 42 39.9853 42 37.5C42 35.0147 39.9853 33 37.5 33H21.5ZM37.5 35H21.5C20.1193 35 19 36.1193 19 37.5C19 38.8807 20.1193 40 21.5 40H37.5C38.8807 40 40 38.8807 40 37.5C40 36.1193 38.8807 35 37.5 35Z" fill="black"/>
</svg>

<svg
  xmlns="http://www.w3.org/2000/svg"
  width="24"
  height="24"
  viewBox="0 0 24 24"
  fill="none"
  stroke="currentColor"
  stroke-width="2"
  stroke-linecap="round"
  stroke-linejoin="round"
>
  <path
    fill-rule="evenodd"
    d="M29.712 24.189c.371-.125.763-.19 1.158-.19h1.112a.25.25 0 0 0 .25-.266l-.45-6.518a.48.48 0 0 0-.499-.453c-4.266.216-7.694 3.386-7.957 7.734l-.035.579a.5.5 0 0 0 .616.516zm.188-5.193c-2.08.572-3.69 2.099-4.311 4.131l3.578-.864q.463-.147.944-.212z"
    clip-rule="evenodd"
  />
  <path
    fill-rule="evenodd"
    d="M10.5 6a3.5 3.5 0 0 0-3.114 5.1l-1.16 13.276-.004.064-.082 2.32a4.875 4.875 0 0 0 4.296 5.013l.18.022a4.88 4.88 0 0 0 4.8-2.405l2.195-3.806c.495-.857-.278-1.889-1.24-1.655l-1.681.408-2.548-.165-1.066-.127 1.692-11.222c1.815.562 3.607 1.158 5.153 2.002 1.495.817 2.688 1.829 3.417 3.198a11.95 11.95 0 0 0-2.218 6.311l-.311 5.61A1 1 0 0 0 19.807 31h21.65a.5.5 0 0 0 .498-.541l-.59-7.084A1.5 1.5 0 0 0 39.87 22h-3.826a.05.05 0 0 1-.05-.043l-1.004-7.232A2 2 0 0 0 33.009 13h-1.907c-1.817 0-3.543.405-5.091 1.131-2.914-4.408-8.012-5.65-12.649-6.646A3.5 3.5 0 0 0 10.5 6M9 9.5a1.5 1.5 0 1 1 3 0 1.5 1.5 0 0 1-3 0m1.977 3.468a3.54 3.54 0 0 1-1.971-.302L7.971 24.503l-.082 2.319a3.125 3.125 0 0 0 2.754 3.213l.18.022a3.13 3.13 0 0 0 3.077-1.541l1.466-2.542-.356.086q-.166.04-.338.03l-2.69-.175-1.753-.209a1.125 1.125 0 0 1-.98-1.285zm7.903.102c-1.633-.892-3.481-1.521-5.22-2.064.194-.407.313-.857.336-1.332 4.254.962 8.036 2.158 10.278 5.457a12 12 0 0 0-1.563 1.29c-.967-1.469-2.336-2.534-3.831-3.35m2.237 11.375A10 10 0 0 1 31.102 15h1.907l1.004 7.232A2.05 2.05 0 0 0 36.043 24h3.367l.417 5H20.864z"
    clip-rule="evenodd"
  />
  <path d="M23.5 39a1.5 1.5 0 1 0 0-3 1.5 1.5 0 0 0 0 3" />
  <path d="M31 37.5a1.5 1.5 0 1 1-3 0 1.5 1.5 0 0 1 3 0" />
  <path d="M35.5 39a1.5 1.5 0 1 0 0-3 1.5 1.5 0 0 0 0 3" />
  <path
    fill-rule="evenodd"
    d="M21.5 33a4.5 4.5 0 1 0 0 9h16a4.5 4.5 0 1 0 0-9zm16 2h-16a2.5 2.5 0 0 0 0 5h16a2.5 2.5 0 0 0 0-5"
    clip-rule="evenodd"
  />
</svg>
